X:1
L:1/8
M:2/4
K:C
 GB c2 A2 | dB G4 cd/e/ f2 d2 | ge c4 ddGB | dBce | ddGB | dB c2 | GB c2 A2 | dB G4 cd/e/ f2 fd | 
 ge c4 ddGB | dBce | ddGB | dBce | ddGB | dB c2 | ddGB | dB c2 |]
